packages/icons/web/support_large.svg

<svg width="24" height="24" viewBox="0 0 24 24" fill="none" xmlns="http://www.w3.org/2000/svg">
<path fill-rule="evenodd" clip-rule="evenodd" d="M16 11H8V9H16V11Z" fill="#212933"/>
<path fill-rule="evenodd" clip-rule="evenodd" d="M16 14H8V12H16V14Z" fill="#212933"/>
<path fill-rule="evenodd" clip-rule="evenodd" d="M4 7C4 5.89543 4.89543 5 6 5H18C19.1046 5 20 5.89543 20 7V16C20 17.1046 19.1046 18 18 18H15.4142L12.8839 20.5303C12.3957 21.0185 11.6043 21.0185 11.1161 20.5303L8.58579 18H6C4.89543 18 4 17.1046 4 16V7ZM18 7L6 7V16H9.41421L12 18.5858L14.5858 16H18V7Z" fill="#212933"/>
</svg>

<svg width="24" height="24" fill="none" xmlns="http://www.w3.org/2000/svg">
    <path fill-rule="evenodd" clip-rule="evenodd" d="M16 11H8V9h8v2zm0 3H8v-2h8v2z" fill="currentColor"/>
    <path fill-rule="evenodd" clip-rule="evenodd" d="M4 7a2 2 0 012-2h12a2 2 0 012 2v9a2 2 0 01-2 2h-2.586l-2.53 2.53a1.25 1.25 0 01-1.768 0L8.586 18H6a2 2 0 01-2-2V7zm14 0H6v9h3.414L12 18.586 14.586 16H18V7z" fill="currentColor"/>
</svg>
